Origami/24x24/apps/trillian.svg

<svg width="24" height="24" version="1" xmlns="http://www.w3.org/2000/svg">
 <path d="m10 2.5c-3.8304593 0-7 3.1695407-7 7 0 2.772762 1.6885002 5.158503 4.0585938 6.287109 0.161775 3.693176 3.2124252 6.712891 6.9414062 6.712891 3.830459 0 7-3.169541 7-7 5.8e-5 -0.399264-0.110123-0.785339-0.177734-1.177734 0.04738-0.27491 0.176909-0.532079 0.177734-0.8125a3.0003 3.0003 0 0 0 0 -0.009766c0-2.416453-1.818338-4.3814826-4.123047-4.8183594-0.014342-0.1206541-0.034087-0.2396384-0.054687-0.359375 0.047378-0.27491 0.176909-0.5320781 0.177734-0.8125a3.0003 3.0003 0 0 0 0 -0.0097656c0-2.7258898-2.27411-5-5-5a3.0003 3.0003 0 0 0 -0.01367 0c-0.280483 0.00121-0.537614 0.1319151-0.8125 0.1796875-0.387063-0.0674444-0.768152-0.1781102-1.162111-0.1796875a3.0003 3.0003 0 0 0 -0.011719 0z" style="opacity:.2"/>
 <path d="m10 2c-3.8304593 0-7 3.1695407-7 7 0 2.772762 1.6885002 5.158503 4.0585938 6.287109 0.161775 3.693176 3.2124252 6.712891 6.9414062 6.712891 3.830459 0 7-3.169541 7-7 5.8e-5 -0.399264-0.110123-0.785339-0.177734-1.177734 0.04738-0.27491 0.176909-0.532079 0.177734-0.8125a3.0003 3.0003 0 0 0 0 -0.009766c0-2.416453-1.818338-4.3814826-4.123047-4.8183594-0.014342-0.1206541-0.034087-0.2396384-0.054687-0.359375 0.047378-0.27491 0.176909-0.5320781 0.177734-0.8125a3.0003 3.0003 0 0 0 0 -0.0097656c0-2.7258898-2.27411-5-5-5a3.0003 3.0003 0 0 0 -0.01367 0c-0.280483 0.00121-0.537614 0.1319151-0.8125 0.1796875-0.387063-0.0674444-0.768152-0.1781102-1.162111-0.1796875a3.0003 3.0003 0 0 0 -0.011719 0z" style="fill:#a32b58"/>
 <path d="m10 5.5a4 4 0 0 0 -4 4 4 4 0 0 0 4 4 4 4 0 0 0 4 -4 4 4 0 0 0 -4 -4zm0.5 0.5a3 3 0 0 1 3 3 3 3 0 0 1 -3 3 3 3 0 0 1 -3 -3 3 3 0 0 1 3 -3z" opacity=".2"/>
 <path d="m14 11.5a4 4 0 0 0 -4 4 4 4 0 0 0 4 4 4 4 0 0 0 4 -4 4 4 0 0 0 -4 -4zm0.5 0.5a3 3 0 0 1 3 3 3 3 0 0 1 -3 3 3 3 0 0 1 -3 -3 3 3 0 0 1 3 -3z" opacity=".2"/>
 <path d="m10 5a4 4 0 0 0 -4 4 4 4 0 0 0 4 4 4 4 0 0 0 4 -4 4 4 0 0 0 -4 -4zm0.5 0.5a3 3 0 0 1 3 3 3 3 0 0 1 -3 3 3 3 0 0 1 -3 -3 3 3 0 0 1 3 -3z" fill="#f3ab6f"/>
 <circle cx="12" cy="7.5" r="2" opacity=".2"/>
 <circle cx="12" cy="7" r="2" fill="#f7c39a"/>
 <path d="m14 11a4 4 0 0 0 -4 4 4 4 0 0 0 4 4 4 4 0 0 0 4 -4 4 4 0 0 0 -4 -4zm0.5 0.5a3 3 0 0 1 3 3 3 3 0 0 1 -3 3 3 3 0 0 1 -3 -3 3 3 0 0 1 3 -3z" fill="#f3ab6f"/>
 <circle cx="16" cy="13.5" r="2" opacity=".2"/>
 <circle cx="16" cy="13" r="2" fill="#f7c39a"/>
 <path d="m10 2c-3.8304593 0-7 3.1695407-7 7 0 0.069055 0.013546 0.1345635 0.015625 0.203125 0.1598862-3.6948496 3.2541634-6.703125 6.984375-6.703125a3.0003 3.0003 0 0 1 0.011719 0c0.393959 0.0015773 0.775046 0.1122431 1.162109 0.1796875 0.274886-0.0477724 0.532017-0.1784775 0.8125-0.1796875a3.0003 3.0003 0 0 1 0.013672 0c2.596957 0 4.779401 2.0648306 4.980469 4.6171875 0.004091-0.036215 0.019422-0.070494 0.019531-0.1074219a3.0003 3.0003 0 0 0 0 -0.0097656c0-2.7258898-2.27411-5-5-5a3.0003 3.0003 0 0 0 -0.013672 0c-0.280483 0.00121-0.537614 0.1319151-0.8125 0.1796875-0.387063-0.0674444-0.76815-0.1781102-1.162109-0.1796875a3.0003 3.0003 0 0 0 -0.011719 0zm6.871094 6.1386719c-0.016785 0.0611445-0.038058 0.121097-0.048828 0.1835937 0.0206 0.1197366 0.040345 0.2387209 0.054687 0.359375 2.199564 0.4169456 3.938053 2.2313334 4.09375 4.4960934 0.009222-0.056058 0.029127-0.1103 0.029297-0.167968a3.0003 3.0003 0 0 0 0 -0.009766c0-2.416453-1.818338-4.3814826-4.123047-4.8183594-0.001711-0.0143921-0.004002-0.02862-0.005859-0.0429687zm4.005859 5.9707031c-0.019992 0.0706-0.042225 0.140581-0.054687 0.212891 0.058351 0.338654 0.136619 0.673845 0.160156 1.015625 0.005558-0.112855 0.017578-0.223797 0.017578-0.337891 4.4e-5 -0.301496-0.063168-0.595769-0.123047-0.890625z" style="fill:#ffffff;opacity:.1"/>
</svg>

<svg xmlns="http://www.w3.org/2000/svg" width="24" height="24" version="1">
 <path style="opacity:0.2" d="m 10,2.5 c -3.8304593,0 -7,3.1695407 -7,7 0,2.772762 1.6885002,5.158503 4.0585938,6.287109 C 7.2203688,19.480285 10.271019,22.5 14,22.5 c 3.830459,0 7,-3.169541 7,-7 5.8e-5,-0.399264 -0.110123,-0.785339 -0.177734,-1.177734 0.04738,-0.27491 0.176909,-0.532079 0.177734,-0.8125 A 3.0003,3.0003 0 0 0 21,13.5 C 21,11.083547 19.181662,9.1185174 16.876953,8.6816406 16.862611,8.5609865 16.842866,8.4420022 16.822266,8.3222656 16.869644,8.0473556 16.999175,7.7901875 17,7.5097656 A 3.0003,3.0003 0 0 0 17,7.5 c 0,-2.7258898 -2.27411,-5 -5,-5 a 3.0003,3.0003 0 0 0 -0.01367,0 C 11.705847,2.50121 11.448716,2.6319151 11.17383,2.6796875 10.786767,2.6122431 10.405678,2.5015773 10.011719,2.5 A 3.0003,3.0003 0 0 0 10,2.5 Z"/>
 <path style="fill:#a32b58" d="M 10,2 C 6.1695407,2 3,5.1695407 3,9 3,11.772762 4.6885002,14.158503 7.0585938,15.287109 7.2203688,18.980285 10.271019,22 14,22 c 3.830459,0 7,-3.169541 7,-7 5.8e-5,-0.399264 -0.110123,-0.785339 -0.177734,-1.177734 0.04738,-0.27491 0.176909,-0.532079 0.177734,-0.8125 A 3.0003,3.0003 0 0 0 21,13 C 21,10.583547 19.181662,8.6185174 16.876953,8.1816406 16.862611,8.0609865 16.842866,7.9420022 16.822266,7.8222656 16.869644,7.5473556 16.999175,7.2901875 17,7.0097656 A 3.0003,3.0003 0 0 0 17,7 C 17,4.2741102 14.72589,2 12,2 a 3.0003,3.0003 0 0 0 -0.01367,0 c -0.280483,0.00121 -0.537614,0.1319151 -0.8125,0.1796875 C 10.786767,2.1122431 10.405678,2.0015773 10.011719,2 A 3.0003,3.0003 0 0 0 10,2 Z"/>
 <path opacity=".2" d="m10 5.5a4 4 0 0 0 -4 4 4 4 0 0 0 4 4 4 4 0 0 0 4 -4 4 4 0 0 0 -4 -4zm0.5 0.5a3 3 0 0 1 3 3 3 3 0 0 1 -3 3 3 3 0 0 1 -3 -3 3 3 0 0 1 3 -3z"/>
 <path opacity=".2" d="m14 11.5a4 4 0 0 0 -4 4 4 4 0 0 0 4 4 4 4 0 0 0 4 -4 4 4 0 0 0 -4 -4zm0.5 0.5a3 3 0 0 1 3 3 3 3 0 0 1 -3 3 3 3 0 0 1 -3 -3 3 3 0 0 1 3 -3z"/>
 <path fill="#f3ab6f" d="m10 5a4 4 0 0 0 -4 4 4 4 0 0 0 4 4 4 4 0 0 0 4 -4 4 4 0 0 0 -4 -4zm0.5 0.5a3 3 0 0 1 3 3 3 3 0 0 1 -3 3 3 3 0 0 1 -3 -3 3 3 0 0 1 3 -3z"/>
 <circle opacity=".2" cx="12" cy="7.5" r="2"/>
 <circle fill="#f7c39a" cx="12" cy="7" r="2"/>
 <path fill="#f3ab6f" d="m14 11a4 4 0 0 0 -4 4 4 4 0 0 0 4 4 4 4 0 0 0 4 -4 4 4 0 0 0 -4 -4zm0.5 0.5a3 3 0 0 1 3 3 3 3 0 0 1 -3 3 3 3 0 0 1 -3 -3 3 3 0 0 1 3 -3z"/>
 <circle opacity=".2" cx="16" cy="13.5" r="2"/>
 <circle fill="#f7c39a" cx="16" cy="13" r="2"/>
 <path style="opacity:0.1;fill:#ffffff" d="M 10 2 C 6.1695407 2 3 5.1695407 3 9 C 3 9.069055 3.013546 9.1345635 3.015625 9.203125 C 3.1755112 5.5082754 6.2697884 2.5 10 2.5 A 3.0003 3.0003 0 0 1 10.011719 2.5 C 10.405678 2.5015773 10.786765 2.6122431 11.173828 2.6796875 C 11.448714 2.6319151 11.705845 2.50121 11.986328 2.5 A 3.0003 3.0003 0 0 1 12 2.5 C 14.596957 2.5 16.779401 4.5648306 16.980469 7.1171875 C 16.98456 7.0809725 16.999891 7.0466935 17 7.0097656 A 3.0003 3.0003 0 0 0 17 7 C 17 4.2741102 14.72589 2 12 2 A 3.0003 3.0003 0 0 0 11.986328 2 C 11.705845 2.00121 11.448714 2.1319151 11.173828 2.1796875 C 10.786765 2.1122431 10.405678 2.0015773 10.011719 2 A 3.0003 3.0003 0 0 0 10 2 z M 16.871094 8.1386719 C 16.854309 8.1998164 16.833036 8.2597689 16.822266 8.3222656 C 16.842866 8.4420022 16.862611 8.5609865 16.876953 8.6816406 C 19.076517 9.0985862 20.815006 10.912974 20.970703 13.177734 C 20.979925 13.121676 20.99983 13.067434 21 13.009766 A 3.0003 3.0003 0 0 0 21 13 C 21 10.583547 19.181662 8.6185174 16.876953 8.1816406 C 16.875242 8.1672485 16.872951 8.1530206 16.871094 8.1386719 z M 20.876953 14.109375 C 20.856961 14.179975 20.834728 14.249956 20.822266 14.322266 C 20.880617 14.66092 20.958885 14.996111 20.982422 15.337891 C 20.98798 15.225036 21 15.114094 21 15 C 21.000044 14.698504 20.936832 14.404231 20.876953 14.109375 z"/>
</svg>
